assets/img/logos/bizmomento.svg

<svg width="125" height="55" viewBox="0 0 125 55" fill="none" xmlns="http://www.w3.org/2000/svg">
<g clip-path="url(#clip0_696:3197)">
<rect width="125" height="55" fill="#F6F8FB"/>
<path d="M20.8141 38.4795C20.8141 38.3711 20.8517 38.185 20.6305 38.185C20.5199 38.185 20.447 38.2604 20.374 38.3711L15.1051 46.3793C13.9284 48.1482 13.2225 48.8501 11.8999 48.8501C10.7233 48.8501 10.0573 48.1435 9.46668 46.3793L6.82398 38.2604C6.80309 38.1981 6.76378 38.1435 6.71127 38.104C6.65874 38.0644 6.59548 38.0418 6.52982 38.039C6.30862 38.039 6.27097 38.3334 6.27097 38.3334L3.91772 53.3418C3.69886 54.7432 2.81404 54.9905 1.74566 54.9905C0.898494 54.9905 0.0136719 54.6961 0.0136719 53.6645C0.0331053 53.2921 0.0826862 52.9218 0.161927 52.5575L3.51296 31.5382C3.76475 29.8518 4.56721 29.0415 6.11801 29.0415C7.18638 29.0415 8.0712 29.3736 8.65952 31.2909L12.3071 43.1643C12.3447 43.275 12.38 43.4587 12.5283 43.4587C12.6765 43.4587 12.7495 43.275 12.8224 43.1643L20.6705 31.2909C22.033 29.2253 22.6967 29.0415 23.8756 29.0415C25.1276 29.0415 25.8641 29.6681 25.8641 30.9258C25.8544 31.1361 25.83 31.3455 25.7912 31.5523L22.3248 53.3418C22.106 54.7432 21.2212 54.9905 20.1528 54.9905C19.3056 54.9905 18.4208 54.6961 18.4208 53.6645C18.4402 53.2921 18.4898 52.9218 18.5691 52.5575L20.8141 38.4795Z" fill="#1A1C39"/>
<path d="M29.0254 54.8539C28.0677 54.8539 27.5146 54.4465 27.5146 53.5632C27.5153 53.3782 27.5271 53.1933 27.5499 53.0097L31.0634 30.8834C31.2469 29.7411 31.9105 29.1876 33.0895 29.1876H45.677C46.8537 29.1876 47.2608 29.9625 47.2608 30.8104C47.2608 31.9175 46.5548 32.8761 45.0134 32.8761H34.9556C34.6991 32.8761 34.5885 32.9491 34.5509 33.2082L33.5931 39.4028C33.5554 39.6595 33.5931 39.7349 33.852 39.7349H42.5096C43.6862 39.7349 44.0933 40.5098 44.0933 41.3577C44.0933 42.4624 43.3873 43.421 41.846 43.421H33.2613C33.0024 43.421 32.9295 43.4964 32.8918 43.7531L31.7882 50.8333C31.7505 51.0924 31.7882 51.1655 32.0447 51.1655H42.5449C43.7215 51.1655 44.1286 51.9404 44.1286 52.7883C44.1286 53.8953 43.4226 54.8539 41.8836 54.8539H29.0254Z" fill="#1A1C39"/>
<path d="M65.837 52.4562C65.5428 54.2275 64.7333 55 63.3331 55C61.86 55 61.4176 54.4112 60.3115 51.792L54.1931 37.1158C54.1201 36.9321 54.0448 36.7837 53.8989 36.7837C53.6777 36.7837 53.6777 37.0428 53.6401 37.1912L51.0515 53.3419C50.8303 54.7433 49.9478 54.9906 48.8795 54.9906C48.0323 54.9906 47.1475 54.6962 47.1475 53.6645C47.1672 53.2923 47.2159 52.9221 47.2934 52.5575L50.6467 31.6137C50.9433 29.7294 51.7528 29.0228 53.153 29.0228C54.5155 29.0228 55.1062 29.6493 56.1745 32.2661L62.293 46.9423C62.3683 47.1284 62.4412 47.2744 62.5871 47.2744C62.8107 47.2744 62.8107 47.0177 62.846 46.8693L65.4346 30.6809C65.6558 29.2677 66.5406 29.0322 67.609 29.0322C68.4561 29.0322 69.341 29.3266 69.341 30.3583C69.3204 30.7306 69.2708 31.1007 69.1927 31.4653L65.837 52.4562Z" fill="#1A1C39"/>
<path d="M73.5603 32.8761C72.3837 32.8761 71.9766 32.1012 71.9766 31.2532C71.9766 30.1462 72.6825 29.1876 74.2239 29.1876H88.887C90.0637 29.1876 90.4708 29.9625 90.4708 30.8104C90.4708 31.9175 89.7648 32.8761 88.2234 32.8761H83.2133C82.8439 32.8761 82.8815 33.0598 82.8439 33.2082L79.6388 53.3418C79.4176 54.7432 78.5327 54.9906 77.4643 54.9906C76.6548 54.9906 75.7347 54.6961 75.7347 53.6645C75.7347 53.4431 75.8453 52.8896 75.8806 52.5575L78.9751 33.2105C79.0128 32.9515 78.9398 32.8784 78.681 32.8784L73.5603 32.8761Z" fill="#1A1C39"/>
<path d="M18.2868 12.7189C18.2868 12.8673 18.3622 12.9403 18.5222 13.0887C19.6659 14.085 20.5436 15.4441 20.5436 17.4037C20.5436 21.9378 17.2255 25.81 11.2742 25.81H1.64701C0.580985 25.81 -0.106164 25.2942 0.0844495 24.1613L3.76493 1.84424C3.94378 0.706597 4.70623 0.148376 5.85227 0.148376H14.6628C18.6634 0.148376 21.7226 2.10097 21.7226 6.15925C21.7226 8.59234 20.7672 10.804 18.6328 12.3539C18.4398 12.4999 18.2868 12.5753 18.2868 12.7189ZM6.00288 14.7469C5.73696 14.7469 5.6593 14.8223 5.584 15.079L4.51562 21.7918C4.47797 22.0485 4.51562 22.1239 4.78389 22.1239H12.0013C14.7476 22.1239 16.4278 20.315 16.4278 17.7335C16.4278 16.113 15.3194 14.7469 12.9167 14.7469H6.00288ZM13.2509 11.0702C16.0018 11.0702 17.5997 9.25655 17.5997 6.71041C17.5997 4.75782 16.1877 3.83451 14.3969 3.83451H7.80782C7.5419 3.83451 7.42659 3.90989 7.38894 4.16662L6.3088 10.731C6.27115 10.9877 6.35351 11.0702 6.61472 11.0702H13.2509Z" fill="#1A1C39"/>
<path d="M28.0507 24.3002C27.8154 25.7134 26.907 25.949 25.801 25.949C24.9232 25.949 24.0078 25.6522 24.0078 24.6205C24.0341 24.2485 24.0852 23.8787 24.1608 23.5135L27.7824 1.6605C28.0177 0.294392 28.9285 0.0117493 30.0345 0.0117493C30.8722 0.0117493 31.8277 0.306169 31.8277 1.3755C31.7978 1.73466 31.7467 2.09173 31.6747 2.44484L28.0507 24.3002Z" fill="#1A1C39"/>
<path d="M38.3576 3.83451C37.1363 3.83451 36.7103 3.0596 36.7103 2.21167C36.7103 1.10701 37.4351 0.148376 39.0377 0.148376H52.7313C53.762 0.148376 54.2962 0.699531 54.2962 1.56159C54.2605 2.17327 54.0182 2.75465 53.609 3.21034L38.7694 21.535C38.6655 21.6466 38.5762 21.7708 38.5035 21.9048C38.5035 22.0179 38.5411 22.1404 38.7388 22.1404H49.6861C50.9075 22.1404 51.3334 22.9129 51.3334 23.7609C51.3334 24.8679 50.6086 25.8265 49.0061 25.8265H33.8488C32.4768 25.8265 32.1709 25.1623 32.1709 24.4981C32.1709 23.7255 32.6674 23.0613 33.3922 22.1757L47.8859 4.29145C48.0012 4.18075 48.0389 4.10774 48.0389 4.03472C48.0389 3.84865 47.8483 3.84865 47.8035 3.84865L38.3576 3.83451Z" fill="#1A1C39"/>
<path d="M76.1399 9.44028C76.1399 9.32958 76.1776 9.14586 75.9493 9.14586C75.8929 9.15105 75.8389 9.17067 75.7923 9.20285C75.7457 9.23503 75.7082 9.27868 75.6834 9.32958L70.2285 17.3378C69.0072 19.109 68.2824 19.8086 66.9081 19.8086C65.6891 19.8086 65.002 19.102 64.3901 17.3378L61.6556 9.21888C61.6328 9.15595 61.5917 9.10128 61.5376 9.06184C61.4835 9.0224 61.4189 8.99999 61.3521 8.99747C61.1167 8.99747 61.0838 9.29189 61.0838 9.29189L58.6435 24.3002C58.4081 25.7135 57.4998 25.949 56.3938 25.949C55.516 25.949 54.6006 25.6522 54.6006 24.6206C54.6207 24.2479 54.6719 23.8777 54.7535 23.5136L58.2246 2.49668C58.4787 0.812599 59.3189 0 60.9191 0C62.0251 0 62.9429 0.332106 63.5524 2.24937L67.3293 14.1322C67.367 14.2429 67.4046 14.4266 67.5646 14.4266C67.7247 14.4266 67.8 14.2429 67.8706 14.1322L75.9869 2.24937C77.3989 0.183718 78.086 0 79.305 0C80.6017 0 81.3641 0.626526 81.3641 1.88429C81.3534 2.09539 81.3283 2.30551 81.2888 2.51317L77.7048 24.3002C77.4695 25.7135 76.5588 25.949 75.4528 25.949C74.575 25.949 73.6596 25.6522 73.6596 24.6206C73.6808 24.2481 73.732 23.8779 73.8125 23.5136L76.1399 9.44028Z" fill="#1A1C39"/>
<path d="M113.026 54.9999C107.614 54.9999 105.181 52.3101 105.181 47.4039C105.221 45.5997 105.393 43.8009 105.696 42.0219C106.837 34.6096 108.532 29.0415 117.116 29.0415C122.529 29.0415 125 31.8067 125 36.7483C124.974 38.5154 124.817 40.2782 124.529 42.0219C123.378 49.3965 121.832 54.9999 113.026 54.9999ZM109.158 47.4039C109.158 50.2068 110.412 51.3515 113.617 51.3515C118.848 51.3515 119.658 47.3686 120.543 42.0219C120.864 40.2826 121.021 38.517 121.013 36.7483C121.013 34.2775 119.799 32.6923 116.556 32.6923C111.104 32.6923 110.405 37.4855 109.668 42.0219C109.344 43.798 109.174 45.5986 109.158 47.4039Z" fill="#1A1C39"/>
<path d="M91.8826 25.9608C86.2748 25.9608 83.7568 23.2686 83.7568 18.3647C83.7992 16.559 83.9777 14.7591 84.291 12.9804C85.4724 5.56807 87.2279 0 96.1161 0C101.724 0 104.28 2.76519 104.28 7.70674C104.249 9.47496 104.082 11.2382 103.778 12.9804C102.602 20.355 100.999 25.9608 91.8826 25.9608ZM87.8774 18.3718C87.8774 21.1723 89.174 22.317 92.4921 22.317C97.9046 22.317 98.7471 18.3341 99.6625 12.9875C99.9986 11.2499 100.165 9.48365 100.159 7.7138C100.159 5.24303 98.9 3.65787 95.5443 3.65787C89.8965 3.65787 89.174 8.45103 88.4116 12.9875C88.0751 14.7629 87.8963 16.5648 87.8774 18.3718Z" fill="#1A1C39"/>
<path d="M118.235 1.21298H123.28C123.402 1.21303 123.522 1.24586 123.627 1.30806C123.732 1.37025 123.819 1.45954 123.878 1.5666C123.937 1.67366 123.966 1.79458 123.962 1.91674C123.958 2.0389 123.922 2.15782 123.857 2.26112L90.9959 54.5336C90.9342 54.6315 90.8487 54.7121 90.7475 54.7681C90.6463 54.8241 90.5327 54.8536 90.417 54.8539H85.3717C85.2495 54.8539 85.1297 54.8211 85.0246 54.7589C84.9195 54.6967 84.833 54.6074 84.7741 54.5003C84.7152 54.3933 84.6861 54.2724 84.6898 54.1502C84.6935 54.028 84.7298 53.9091 84.7951 53.8058L117.663 1.53331C117.724 1.43603 117.808 1.35566 117.908 1.29966C118.008 1.24366 118.12 1.21385 118.235 1.21298Z" fill="url(#paint0_linear_696:3197)"/>
</g>
<defs>
<linearGradient id="paint0_linear_696:3197" x1="84.6892" y1="28.0335" x2="123.963" y2="28.0335" gradientUnits="userSpaceOnUse">
<stop stop-color="#365AD4"/>
<stop offset="1" stop-color="#4F78D6"/>
</linearGradient>
<clipPath id="clip0_696:3197">
<rect width="125" height="55" fill="white"/>
</clipPath>
</defs>
</svg>

<svg width="125" height="55" fill="none" xmlns="http://www.w3.org/2000/svg">
  <g clip-path="url(#a)">
    <path fill="#F6F8FB" d="M0 0h125v55H0z"/>
    <path d="M20.814 38.48c0-.109.038-.295-.183-.295-.111 0-.184.075-.257.186l-5.269 8.008c-1.177 1.77-1.883 2.471-3.205 2.471-1.177 0-1.843-.706-2.433-2.47l-2.643-8.12a.325.325 0 0 0-.294-.221c-.221 0-.259.294-.259.294L3.918 53.342c-.22 1.401-1.104 1.648-2.172 1.648-.848 0-1.732-.294-1.732-1.326a6.9 6.9 0 0 1 .148-1.107l3.351-21.019c.252-1.686 1.054-2.497 2.605-2.497 1.068 0 1.953.333 2.542 2.25l3.647 11.873c.038.111.073.295.221.295.149 0 .221-.184.294-.295l7.849-11.873c1.362-2.066 2.026-2.25 3.205-2.25 1.252 0 1.988.627 1.988 1.885-.01.21-.034.42-.073.626l-3.466 21.79c-.219 1.401-1.104 1.648-2.172 1.648-.847 0-1.732-.294-1.732-1.326a6.89 6.89 0 0 1 .148-1.107l2.245-14.078Zm8.211 16.374c-.957 0-1.51-.407-1.51-1.29 0-.186.012-.37.035-.554l3.513-22.127c.184-1.142.848-1.695 2.027-1.695h12.587c1.177 0 1.584.774 1.584 1.622 0 1.108-.706 2.066-2.248 2.066H34.956c-.257 0-.367.073-.405.332l-.958 6.195c-.038.257 0 .332.259.332h8.658c1.176 0 1.583.775 1.583 1.623 0 1.104-.706 2.063-2.247 2.063h-8.585c-.259 0-.332.075-.37.332l-1.103 7.08c-.038.26 0 .333.257.333h10.5c1.176 0 1.584.774 1.584 1.622 0 1.107-.706 2.066-2.245 2.066H29.025Zm36.812-2.398C65.543 54.227 64.733 55 63.333 55c-1.473 0-1.915-.589-3.021-3.208l-6.119-14.676c-.073-.184-.148-.332-.294-.332-.221 0-.221.259-.259.407l-2.589 16.15c-.22 1.402-1.103 1.65-2.172 1.65-.847 0-1.731-.295-1.731-1.327a7.14 7.14 0 0 1 .145-1.107l3.354-20.943c.296-1.885 1.106-2.591 2.506-2.591 1.363 0 1.953.626 3.022 3.243l6.118 14.676c.075.186.148.332.294.332.224 0 .224-.256.259-.405l2.589-16.188c.22-1.413 1.106-1.649 2.174-1.649.847 0 1.732.295 1.732 1.326-.02.373-.07.743-.148 1.107l-3.356 20.991Zm7.723-19.58c-1.176 0-1.583-.775-1.583-1.623 0-1.107.706-2.065 2.247-2.065h14.663c1.177 0 1.584.774 1.584 1.622 0 1.108-.706 2.066-2.248 2.066h-5.01c-.37 0-.331.184-.37.332L79.64 53.342c-.221 1.401-1.106 1.649-2.175 1.649-.81 0-1.73-.295-1.73-1.327 0-.22.111-.774.147-1.107l3.094-19.346c.038-.26-.035-.333-.294-.333l-5.12-.002ZM18.287 12.719c0 .148.075.221.235.37 1.144.996 2.022 2.355 2.022 4.315 0 4.534-3.319 8.406-9.27 8.406H1.647c-1.066 0-1.753-.516-1.563-1.649l3.68-22.317C3.945.707 4.707.148 5.853.148h8.81c4.001 0 7.06 1.953 7.06 6.011 0 2.433-.955 4.645-3.09 6.195-.192.146-.345.221-.345.365ZM6.003 14.747c-.266 0-.344.075-.419.332l-1.068 6.713c-.038.256 0 .332.268.332H12c2.747 0 4.427-1.809 4.427-4.39 0-1.621-1.109-2.987-3.511-2.987H6.003Zm7.248-3.677c2.75 0 4.349-1.813 4.349-4.36 0-1.952-1.412-2.875-3.203-2.875h-6.59c-.265 0-.38.075-.418.332l-1.08 6.564c-.038.257.045.34.306.34h6.636ZM28.05 24.3c-.235 1.413-1.143 1.649-2.249 1.649-.878 0-1.793-.297-1.793-1.329.026-.372.077-.741.153-1.107L27.782 1.66C28.018.294 28.928.012 30.035.012c.837 0 1.793.294 1.793 1.363-.03.36-.081.717-.153 1.07L28.05 24.3ZM38.358 3.835c-1.222 0-1.648-.775-1.648-1.623 0-1.105.725-2.064 2.328-2.064H52.73c1.031 0 1.565.552 1.565 1.414a2.703 2.703 0 0 1-.687 1.648l-14.84 18.325a1.808 1.808 0 0 0-.265.37c0 .113.037.235.235.235h10.947c1.221 0 1.647.773 1.647 1.62 0 1.108-.724 2.066-2.327 2.066H33.85c-1.372 0-1.678-.664-1.678-1.328 0-.773.496-1.437 1.221-2.322L47.886 4.29c.115-.11.153-.183.153-.256 0-.186-.19-.186-.236-.186l-9.445-.014ZM76.14 9.44c0-.11.038-.294-.19-.294a.33.33 0 0 0-.267.184l-5.455 8.008c-1.22 1.771-1.946 2.47-3.32 2.47-1.219 0-1.906-.706-2.518-2.47l-2.734-8.12a.336.336 0 0 0-.304-.22c-.235 0-.268.294-.268.294L58.644 24.3c-.236 1.413-1.144 1.649-2.25 1.649-.878 0-1.793-.297-1.793-1.328.02-.373.07-.743.153-1.107l3.47-21.017C58.48.813 59.32 0 60.92 0c1.106 0 2.024.332 2.633 2.25l3.777 11.882c.038.11.076.295.236.295.16 0 .235-.184.306-.295L75.987 2.25C77.399.184 78.086 0 79.305 0c1.297 0 2.06.627 2.06 1.884a4.946 4.946 0 0 1-.076.63L77.705 24.3c-.236 1.413-1.146 1.649-2.252 1.649-.878 0-1.793-.297-1.793-1.328.02-.373.072-.743.153-1.107L76.14 9.44ZM113.026 55c-5.412 0-7.845-2.69-7.845-7.596.04-1.804.212-3.603.515-5.382 1.141-7.412 2.836-12.98 11.42-12.98 5.413 0 7.884 2.765 7.884 7.706a35.573 35.573 0 0 1-.471 5.274C123.378 49.397 121.832 55 113.026 55Zm-3.868-7.596c0 2.803 1.254 3.947 4.459 3.947 5.231 0 6.041-3.982 6.926-9.33a28.35 28.35 0 0 0 .47-5.273c0-2.47-1.214-4.056-4.457-4.056-5.452 0-6.151 4.794-6.888 9.33a31.547 31.547 0 0 0-.51 5.382ZM91.883 25.96c-5.608 0-8.126-2.691-8.126-7.595.042-1.806.22-3.606.534-5.385C85.472 5.568 87.228 0 96.116 0c5.608 0 8.164 2.765 8.164 7.707a34.162 34.162 0 0 1-.502 5.273c-1.176 7.375-2.779 12.98-11.895 12.98Zm-4.006-7.588c0 2.8 1.297 3.945 4.615 3.945 5.413 0 6.255-3.983 7.17-9.33a27.2 27.2 0 0 0 .497-5.273c0-2.471-1.259-4.056-4.615-4.056-5.647 0-6.37 4.793-7.132 9.33a30.635 30.635 0 0 0-.535 5.384Z" fill="#1A1C39"/>
    <path d="M118.235 1.213h5.045a.682.682 0 0 1 .577 1.048L90.996 54.534a.686.686 0 0 1-.579.32h-5.045a.681.681 0 0 1-.577-1.048l32.868-52.273a.683.683 0 0 1 .572-.32Z" fill="url(#b)"/>
  </g>
  <defs>
    <linearGradient id="b" x1="84.689" y1="28.034" x2="123.963" y2="28.034" gradientUnits="userSpaceOnUse">
      <stop stop-color="#365AD4"/>
      <stop offset="1" stop-color="#4F78D6"/>
    </linearGradient>
    <clipPath id="a">
      <path fill="#fff" d="M0 0h125v55H0z"/>
    </clipPath>
  </defs>
</svg>
